fs/arrow_sync_circle_24_filled.svg

<svg viewBox="0 0 24 24" fill="none" xmlns="http://www.w3.org/2000/svg" height="1em" width="1em">
  <path d="M12 22C6.47715 22 2 17.5228 2 12C2 6.47715 6.47715 2 12 2C17.5228 2 22 6.47715 22 12C22 17.5228 17.5228 22 12 22ZM15.2705 10.75H14C13.5858 10.75 13.25 11.0858 13.25 11.5C13.25 11.9142 13.5858 12.25 14 12.25H16.75C17.1642 12.25 17.5 11.9142 17.5 11.5V8.25C17.5 7.83579 17.1642 7.5 16.75 7.5C16.3358 7.5 16 7.83579 16 8.25V8.99955C15.0879 7.78531 13.636 7 12.0001 7C10.4632 7 9.09595 7.66036 8.17321 8.77062C7.90846 9.08918 7.95208 9.56205 8.27064 9.8268C8.5892 10.0916 9.06206 10.0479 9.32682 9.72938C9.96324 8.96361 10.907 8.5 12.0001 8.5C13.4924 8.5 14.7674 9.43442 15.2705 10.75ZM8 15.75V15C8.91194 16.2143 10.3638 17 12.0001 17C13.5252 17 14.9041 16.316 15.8214 15.237C16.0897 14.9214 16.0514 14.4481 15.7358 14.1798C15.4202 13.9115 14.9469 13.9499 14.6786 14.2655C14.0368 15.0204 13.0707 15.5 12.0001 15.5C10.6047 15.5 9.39859 14.6829 8.83669 13.5H10C10.4142 13.5 10.75 13.1642 10.75 12.75C10.75 12.3358 10.4142 12 10 12H7.25C6.83579 12 6.5 12.3358 6.5 12.75V15.75C6.5 16.1642 6.83579 16.5 7.25 16.5C7.66421 16.5 8 16.1642 8 15.75Z" fill="#212121"/>
</svg>

<svg viewBox="0 0 24 24" fill="none" xmlns="http://www.w3.org/2000/svg" height="1em" width="1em">
  <path d="M12 22C6.477 22 2 17.523 2 12S6.477 2 12 2s10 4.477 10 10-4.477 10-10 10Zm3.27-11.25H14a.75.75 0 0 0 0 1.5h2.75a.75.75 0 0 0 .75-.75V8.25a.75.75 0 0 0-1.5 0V9a4.991 4.991 0 0 0-4-2c-1.537 0-2.904.66-3.827 1.77a.75.75 0 0 0 1.154.96C9.963 8.963 10.907 8.5 12 8.5c1.492 0 2.767.934 3.27 2.25Zm-7.27 5V15a5.013 5.013 0 0 0 7.821.237.75.75 0 1 0-1.142-.972 3.513 3.513 0 0 1-5.842-.765H10a.75.75 0 0 0 0-1.5H7.25a.75.75 0 0 0-.75.75v3a.75.75 0 0 0 1.5 0Z" fill="#212121"/>
</svg>
